X: 6
T:La Bastringue
R:Reel
C:French Canadian, via PR
S:Nottingham Music Database
M:4/4
L:1/8
Q:1/4=200
K:D
de|:f2ff f2gf|e2c2 d3d|c2d2 efec|d2e2 f2d2|
f2ff f2gf|e2c2 d3d|g2 (3fgf e2d2|[1 B2c2 d2A2:|[2 B2c2 d2 (3ABc
|:d2fd adfd|=c2ec gcec|d2fd adfa|bgec dcBA|
d2fd adfd|d2fd adfa|Adfa bgec|[1 dfec d2 (3ABc:|[2 dfec d4|]
